X:53c
T:Star of Munster
C:Traditional
S:Jim Coon to CoMandoList TOW
M:4/4
L:1/8
Q:1/8=424
K:Bb
|:BAGB AGFD|GFDG FDCF|DGGF GABc|dggg fdcA|!
BAGB AGFD|GFDG FDCF|DGGF GABc|dBcA BGG2:|!
3 dggf gddd|gbag fdd=e|f=efg fccc|fgag fdc2|!
dggf gddd|gbag fdd=e|f=efd gfge|a_a=ag fdc2:|!
